src/assets/img/google.svg

<svg width="145" height="49" viewBox="0 0 145 49" fill="none" xmlns="http://www.w3.org/2000/svg">
<g clip-path="url(#clip0_3315_1325)">
<path d="M61.4535 25.0331C61.4535 31.8087 56.1497 36.8015 49.6406 36.8015C43.1315 36.8015 37.8276 31.8087 37.8276 25.0331C37.8276 18.2097 43.1315 13.2646 49.6406 13.2646C56.1497 13.2646 61.4535 18.2097 61.4535 25.0331ZM56.2824 25.0331C56.2824 20.799 53.2084 17.902 49.6406 17.902C46.0728 17.902 42.9988 20.799 42.9988 25.0331C42.9988 29.2247 46.0728 32.1642 49.6406 32.1642C53.2084 32.1642 56.2824 29.2194 56.2824 25.0331Z" fill="#374151"/>
<path d="M86.9369 25.0331C86.9369 31.8087 81.6331 36.8015 75.124 36.8015C68.6149 36.8015 63.311 31.8087 63.311 25.0331C63.311 18.215 68.6149 13.2646 75.124 13.2646C81.6331 13.2646 86.9369 18.2097 86.9369 25.0331ZM81.7658 25.0331C81.7658 20.799 78.6918 17.902 75.124 17.902C71.5562 17.902 68.4822 20.799 68.4822 25.0331C68.4822 29.2247 71.5562 32.1642 75.124 32.1642C78.6918 32.1642 81.7658 29.2194 81.7658 25.0331Z" fill="#374151"/>
<path d="M111.36 13.9756V35.1036C111.36 43.7946 106.231 47.3443 100.168 47.3443C94.4604 47.3443 91.0254 43.5294 89.7299 40.4095L94.2321 38.5365C95.0338 40.4519 96.9982 42.7122 100.163 42.7122C104.044 42.7122 106.449 40.3193 106.449 35.8146V34.122H106.268C105.111 35.5493 102.881 36.7962 100.067 36.7962C94.1791 36.7962 88.7849 31.6707 88.7849 25.0755C88.7849 18.4326 94.1791 13.2646 100.067 13.2646C102.876 13.2646 105.105 14.5115 106.268 15.8964H106.449V13.9809H111.36V13.9756ZM106.815 25.0755C106.815 20.9316 104.049 17.902 100.529 17.902C96.9611 17.902 93.972 20.9316 93.972 25.0755C93.972 29.177 96.9611 32.1642 100.529 32.1642C104.049 32.1642 106.815 29.177 106.815 25.0755Z" fill="#374151"/>
<path d="M119.456 1.5918V36.08H114.412V1.5918H119.456Z" fill="#374151"/>
<path d="M139.112 28.9065L143.125 31.5807C141.83 33.4961 138.708 36.7964 133.314 36.7964C126.624 36.7964 121.628 31.6285 121.628 25.0279C121.628 18.0295 126.667 13.2595 132.735 13.2595C138.846 13.2595 141.835 18.1197 142.812 20.7461L143.348 22.0832L127.607 28.5988C128.812 30.9599 130.686 32.1643 133.314 32.1643C135.947 32.1643 137.774 30.8697 139.112 28.9065ZM126.757 24.6725L137.28 20.3057C136.701 18.836 134.96 17.812 132.91 17.812C130.282 17.812 126.624 20.1306 126.757 24.6725Z" fill="#374151"/>
<path d="M18.7357 21.9716V16.9788H35.5711C35.7357 17.849 35.8207 18.8783 35.8207 19.9925C35.8207 23.7385 34.796 28.3705 31.4937 31.6708C28.2816 35.0135 24.1776 36.7962 18.741 36.7962C8.66415 36.7962 0.190674 28.5934 0.190674 18.5228C0.190674 8.45227 8.66415 0.24939 18.741 0.24939C24.3157 0.24939 28.2869 2.43541 31.2707 5.28466L27.7454 8.80777C25.6058 6.80214 22.707 5.24222 18.7357 5.24222C11.3771 5.24222 5.62198 11.1689 5.62198 18.5228C5.62198 25.8768 11.3771 31.8034 18.7357 31.8034C23.5087 31.8034 26.227 29.888 27.9684 28.1477C29.3806 26.7363 30.3097 24.7201 30.6761 21.9663L18.7357 21.9716Z" fill="#374151"/>
</g>
<defs>
<clipPath id="clip0_3315_1325">
<rect width="144.365" height="48.8294" fill="white"/>
</clipPath>
</defs>
</svg>

<svg xmlns="http://www.w3.org/2000/svg" width="145" height="49" fill="none"><g fill="#374151" clip-path="url(#a)"><path d="M61.454 25.033c0 6.776-5.304 11.768-11.813 11.768S37.828 31.81 37.828 25.033c0-6.823 5.304-11.768 11.813-11.768s11.813 4.945 11.813 11.768m-5.172 0c0-4.234-3.074-7.131-6.641-7.131s-6.642 2.897-6.642 7.131c0 4.192 3.074 7.131 6.642 7.131 3.567 0 6.641-2.945 6.641-7.13M86.937 25.033c0 6.776-5.304 11.768-11.813 11.768S63.311 31.81 63.311 25.033c0-6.818 5.304-11.768 11.813-11.768s11.813 4.945 11.813 11.768m-5.171 0c0-4.234-3.074-7.131-6.642-7.131s-6.642 2.897-6.642 7.131c0 4.192 3.074 7.131 6.642 7.131s6.642-2.945 6.642-7.13M111.36 13.976v21.128c0 8.69-5.129 12.24-11.192 12.24-5.708 0-9.143-3.815-10.438-6.934l4.502-1.873c.802 1.915 2.766 4.175 5.931 4.175 3.881 0 6.286-2.393 6.286-6.897v-1.693h-.181c-1.157 1.427-3.387 2.674-6.201 2.674-5.888 0-11.282-5.125-11.282-11.72 0-6.643 5.394-11.811 11.282-11.811 2.809 0 5.038 1.246 6.201 2.631h.181v-1.915h4.911zm-4.545 11.1c0-4.144-2.766-7.174-6.286-7.174-3.568 0-6.557 3.03-6.557 7.174 0 4.101 2.99 7.088 6.557 7.088 3.52 0 6.286-2.987 6.286-7.088M119.456 1.592V36.08h-5.044V1.592zM139.112 28.907l4.013 2.674c-1.295 1.915-4.417 5.215-9.811 5.215-6.69 0-11.686-5.167-11.686-11.768 0-6.998 5.039-11.768 11.107-11.768 6.111 0 9.1 4.86 10.077 7.486l.536 1.337-15.741 6.516c1.205 2.36 3.079 3.565 5.707 3.565 2.633 0 4.46-1.294 5.798-3.258m-12.355-4.235 10.523-4.366c-.579-1.47-2.32-2.494-4.37-2.494-2.628 0-6.286 2.319-6.153 6.86M18.736 21.972v-4.993H35.57c.165.87.25 1.9.25 3.014 0 3.746-1.025 8.378-4.327 11.678-3.212 3.343-7.316 5.125-12.753 5.125-10.077 0-18.55-8.203-18.55-18.273S8.664.249 18.74.249c5.575 0 9.546 2.186 12.53 5.036l-3.526 3.523c-2.14-2.006-5.038-3.566-9.01-3.566-7.358 0-13.113 5.927-13.113 13.28 0 7.355 5.755 13.281 13.114 13.281 4.773 0 7.491-1.915 9.232-3.655 1.413-1.412 2.342-3.428 2.708-6.182z"/></g><defs><clipPath id="a"><path fill="#fff" d="M0 0h144.365v48.829H0z"/></clipPath></defs></svg>
